assets/static/svgs/patterns/pattern-lines.svg

<svg width="1em" height="auto"    viewBox="0 0 647 617" fill="none" xmlns="http://www.w3.org/2000/svg">
<symbol id="item"
width="1em"
height="auto"
viewBox="0 0 647 617"
fill="none"
>
<path d="M148.185 159.974C320.154 108.75 519.564 29.205 518.192 25.967c-1.372-3.238-131.721 44.876-300.487 99.357l-69.52 34.65Zm265.271 320.447c56.329-109.164 118.914-227.858 151.753-294.377 15.715-31.851 24.368-51.755 22.538-52.944-1.061-.696-10.281 15.458-27.277 44.913-28.1 48.846-75.83 133.44-129.214 232.742l-17.8 69.666ZM295.09 616.66c112.877-195.514 261.063-442.581 259.343-444.172-1.72-1.592-98.79 150.106-214.046 343.076L295.09 616.66Zm-67.031-160.095c151.424-155.833 296.024-315.69 294.469-317.52-1.555-1.829-123.598 123.598-275.552 278.882l-18.917 38.638Zm-99.997-8.16C296.261 312.203 510.215 123.44 508.77 121.501c-1.445-1.939-134.446 110.133-302.664 246.335l-78.044 80.569ZM0 321.807c205.209-88.49 484.53-237.645 483.341-239.676-1.189-2.03-154.625 80.496-353.45 175.426L0 321.807ZM247.598 394.4c146.356-135.91 285.211-276.924 283.729-278.79-1.482-1.866-118.585 108.285-265.27 243.866L247.598 394.4Zm-78.465-104.901C344.76 191.294 508.349 82.46 507.105 80.503c-1.244-1.958-137.465 81.776-312.433 180.621l-25.539 28.375ZM277.729 168.92C405.059 111.293 604.871 3.209 603.371.099c-1.5-3.11-140.264 68.019-265.581 127.622l-60.061 41.199Zm203.636 269.899c56.493-138.252 168.09-397.338 165.455-399.26-2.634-1.92-75.41 162.822-134.775 298.201l-30.68 101.059ZM311.738 268.424C438.903 171.591 558.714 68.703 557.379 66.782c-1.336-1.92-102.303 77.239-229.505 174.017l-16.136 27.625Zm56.384 114.158c92.735-122.061 224.711-291.816 222.187-294.45-2.525-2.635-80.24 92.808-173.798 214.045l-48.389 80.405Z" fill="url(#a)"/><path d="m396.076 144.698-84.155 49.231-86.295 49.614-15.239 23.161 114.981-68.494 48.937-30.351 25.613-16.008a4.006 4.006 0 0 0 2.14-3.659 4.143 4.143 0 0 0-1.243-2.919 4.14 4.14 0 0 0-2.946-1.179 4.043 4.043 0 0 0-1.83.44l.037.164Z" fill="url(#b)"/><path d="m226.029 190.123 88.746-40.412 32.619-13.099 21.002-23.49-66.537 31.009-51.718 25.173-27.259 13.392a4.014 4.014 0 0 0-1.703 1.282 4.015 4.015 0 0 0-.804 1.974 4.085 4.085 0 0 0 3.659 4.428 3.921 3.921 0 0 0 1.995-.257Z" fill="url(#c)"/><path d="m459.905 189.684 31.448-31.521-4.482-3.22-31.576 29.088a3.657 3.657 0 0 0-.439 5.159 3.658 3.658 0 0 0 3.513 1.226 3.41 3.41 0 0 0 1.536-.732Z" fill="url(#d)"/><path d="M589.705 133.795a2.816 2.816 0 0 0-3.997-2.535 2.823 2.823 0 0 0-1.327 1.272l-.091.165c-8.855 18.295-17.746 35.711-25.338 48.005l6.165 6.238 24.24-51.883c.217-.386.336-.82.348-1.262Z" fill="url(#e)"/><path d="M329.008 88.626a5.485 5.485 0 0 0-3.537 6.088 5.489 5.489 0 0 0 5.367 4.559c.624 0 1.244-.11 1.829-.33 104.425-37.283 186.439-70.89 185.561-72.976-1.043-2.47-77.678 25.136-189.22 62.659Z" fill="url(#f)"/><path d="M321.983 358.579c112.145-118.438 201.77-218.125 200.545-219.534-1.226-1.408-89.644 88.875-209.509 211.393a5.998 5.998 0 0 0-1.555 4.025 6.089 6.089 0 0 0 3.486 5.48 6.084 6.084 0 0 0 6.448-.778l.347-.366.238-.22Z" fill="url(#g)"/><defs><linearGradient id="b" x1="396.167" y1="151.431" x2="289.145" y2="213.723" gradientUnits="userSpaceOnUse"><stop stop-color="currentColor"/><stop offset="1" stop-color="currentColor" stop-opacity="0"/></linearGradient><linearGradient id="c" x1="29505.3" y1="37772.1" x2="33674.1" y2="33973.4" gradientUnits="userSpaceOnUse"><stop stop-color="currentColor"/><stop offset="1" stop-color="currentColor" stop-opacity="0"/></linearGradient><linearGradient id="d" x1="9787.04" y1="7011.42" x2="10321.9" y2="7539.21" gradientUnits="userSpaceOnUse"><stop stop-color="currentColor"/><stop offset="1" stop-color="currentColor" stop-opacity="0"/></linearGradient><linearGradient id="e" x1="586.229" y1="133.85" x2="566.233" y2="175.159" gradientUnits="userSpaceOnUse"><stop stop-color="currentColor"/><stop offset=".09" stop-color="currentColor" stop-opacity=".9"/><stop offset=".42" stop-color="currentColor" stop-opacity=".52"/><stop offset=".69" stop-color="currentColor" stop-opacity=".24"/><stop offset=".89" stop-color="currentColor" stop-opacity=".07"/><stop offset="1" stop-color="currentColor" stop-opacity="0"/></linearGradient><linearGradient id="f" x1="34985.1" y1="17919.8" x2="44243.5" y2="26884.2" gradientUnits="userSpaceOnUse"><stop stop-color="currentColor"/><stop offset="1" stop-color="currentColor" stop-opacity="0"/></linearGradient><linearGradient id="g" x1="39284.5" y1="25228.3" x2="54408.5" y2="40445.9" gradientUnits="userSpaceOnUse"><stop stop-color="currentColor"/><stop offset="1" stop-color="currentColor" stop-opacity="0"/></linearGradient><radialGradient id="a" cx="0" cy="0" r="1" gradientUnits="userSpaceOnUse" gradientTransform="matrix(254.04769 -89.71358 81.63938 231.18346 399.537 221.329)"><stop stop-color="#45535E" stop-opacity=".95"/><stop offset="1" stop-color="#45535E" stop-opacity="0"/></radialGradient></defs>
</symbol>
</svg>

<svg width="1em" height="auto"  viewBox="0 0 647 617" fill="none" xmlns="http://www.w3.org/2000/svg">
<symbol id="item"
width="1em"
height="auto"
viewBox="0 0 647 617"
fill="none"
>
 <path d="M148.185 159.974C320.154 108.75 519.564 29.2051 518.192 25.9669C516.82 22.7288 386.471 70.8434 217.705 125.324L148.185 159.974ZM413.456 480.421C469.785 371.257 532.37 252.563 565.209 186.044C580.924 154.193 589.577 134.289 587.747 133.1C586.686 132.404 577.466 148.558 560.47 178.013C532.37 226.859 484.64 311.453 431.256 410.755L413.456 480.421ZM295.09 616.66C407.967 421.146 556.153 174.079 554.433 172.488C552.713 170.896 455.643 322.594 340.387 515.564L295.09 616.66ZM228.059 456.565C379.483 300.732 524.083 140.875 522.528 139.045C520.973 137.216 398.93 262.643 246.976 417.927L228.059 456.565ZM128.062 448.405C296.261 312.203 510.215 123.44 508.77 121.501C507.325 119.562 374.324 231.634 206.106 367.836L128.062 448.405ZM0 321.807C205.209 233.317 484.53 84.1618 483.341 82.1311C482.152 80.1004 328.716 162.627 129.891 257.557L0 321.807ZM247.598 394.4C393.954 258.49 532.809 117.476 531.327 115.61C529.845 113.744 412.742 223.895 266.057 359.476L247.598 394.4ZM169.133 289.499C344.76 191.294 508.349 82.4604 507.105 80.5029C505.861 78.5453 369.64 162.279 194.672 261.124L169.133 289.499ZM277.729 168.92C405.059 111.293 604.871 3.20858 603.371 0.0985193C601.871 -3.01155 463.107 68.1175 337.79 127.721L277.729 168.92ZM481.365 438.819C537.858 300.567 649.455 41.4807 646.82 39.5598C644.186 37.6388 571.41 202.381 512.045 337.76L481.365 438.819ZM311.738 268.424C438.903 171.591 558.714 68.7029 557.379 66.782C556.043 64.8611 455.076 144.021 327.874 240.799L311.738 268.424ZM368.122 382.582C460.857 260.521 592.833 90.7661 590.309 88.1317C587.784 85.4973 510.069 180.94 416.511 302.177L368.122 382.582Z" fill="url(#paint0_radial)"/> <path d="M396.076 144.698L311.921 193.929L225.626 243.543L210.387 266.704L325.368 198.21L374.305 167.859L399.918 151.851C400.581 151.503 401.133 150.975 401.512 150.328C401.89 149.681 402.079 148.941 402.058 148.192C402.053 147.648 401.941 147.11 401.728 146.609C401.514 146.108 401.204 145.654 400.815 145.273C400.426 144.892 399.965 144.592 399.459 144.39C398.954 144.188 398.413 144.087 397.869 144.094C397.233 144.095 396.606 144.245 396.039 144.534L396.076 144.698Z" fill="url(#paint1_linear)"/> <path d="M226.029 190.123L314.775 149.711L347.394 136.612L368.396 113.122L301.859 144.131L250.141 169.304L222.882 182.696C222.209 182.962 221.621 183.405 221.179 183.978C220.738 184.552 220.46 185.234 220.375 185.952C220.279 187.024 220.609 188.09 221.294 188.919C221.979 189.748 222.964 190.273 224.034 190.38C224.71 190.469 225.397 190.381 226.029 190.123Z" fill="url(#paint2_linear)"/> <path d="M459.905 189.684L491.353 158.163L486.871 154.943L455.295 184.031C454.927 184.341 454.624 184.72 454.403 185.147C454.182 185.574 454.047 186.041 454.006 186.52C453.965 186.999 454.019 187.482 454.165 187.94C454.311 188.398 454.546 188.823 454.856 189.19C455.278 189.69 455.827 190.067 456.445 190.283C457.063 190.499 457.727 190.545 458.369 190.416C458.934 190.306 459.463 190.054 459.905 189.684Z" fill="url(#paint3_linear)"/> <path d="M589.705 133.795C589.699 133.165 589.483 132.555 589.09 132.062C588.697 131.57 588.151 131.223 587.537 131.078C586.924 130.932 586.28 130.997 585.708 131.26C585.136 131.524 584.669 131.972 584.381 132.532L584.29 132.697C575.435 150.992 566.544 168.408 558.952 180.702L565.117 186.94L589.357 135.057C589.574 134.671 589.693 134.237 589.705 133.795Z" fill="url(#paint4_linear)"/> <path d="M329.008 88.6255C327.798 89.0646 326.781 89.9149 326.135 91.0279C325.488 92.1408 325.253 93.4456 325.471 94.7142C325.689 95.9827 326.346 97.1343 327.327 97.9676C328.308 98.8009 329.551 99.263 330.838 99.2729C331.462 99.2736 332.082 99.1621 332.667 98.9436C437.092 61.6595 519.106 28.0525 518.228 25.9669C517.185 23.4971 440.55 51.1035 329.008 88.6255Z" fill="url(#paint5_linear)"/> <path d="M321.983 358.579C434.128 240.141 523.753 140.454 522.528 139.045C521.302 137.637 432.884 227.92 313.019 350.438C312.019 351.541 311.465 352.975 311.464 354.463C311.469 355.612 311.799 356.737 312.416 357.706C313.032 358.676 313.911 359.452 314.95 359.943C315.988 360.435 317.145 360.623 318.286 360.485C319.427 360.347 320.506 359.889 321.398 359.165L321.745 358.799L321.983 358.579Z" fill="url(#paint6_linear)"/> <defs> <radialGradient id="paint0_radial" cx="0" cy="0" r="1" gradientUnits="userSpaceOnUse" gradientTransform="translate(399.537 221.329) rotate(-19.45) scale(269.423 245.175)"> <stop stop-color="#45535E" stop-opacity="0.95"/> <stop offset="1" stop-color="#45535E" stop-opacity="0"/> </radialGradient> <linearGradient id="paint1_linear" x1="396.167" y1="151.431" x2="289.145" y2="213.723" gradientUnits="userSpaceOnUse"> <stop stop-color="currentColor"/> <stop offset="1" stop-color="currentColor" stop-opacity="0"/> </linearGradient> <linearGradient id="paint2_linear" x1="29505.3" y1="37772.1" x2="33674.1" y2="33973.4" gradientUnits="userSpaceOnUse"> <stop stop-color="currentColor"/> <stop offset="1" stop-color="currentColor" stop-opacity="0"/> </linearGradient> <linearGradient id="paint3_linear" x1="9787.04" y1="7011.42" x2="10321.9" y2="7539.21" gradientUnits="userSpaceOnUse"> <stop stop-color="currentColor"/> <stop offset="1" stop-color="currentColor" stop-opacity="0"/> </linearGradient> <linearGradient id="paint4_linear" x1="586.229" y1="133.85" x2="566.233" y2="175.159" gradientUnits="userSpaceOnUse"> <stop stop-color="currentColor"/> <stop offset="0.09" stop-color="currentColor" stop-opacity="0.9"/> <stop offset="0.42" stop-color="currentColor" stop-opacity="0.52"/> <stop offset="0.69" stop-color="currentColor" stop-opacity="0.24"/> <stop offset="0.89" stop-color="currentColor" stop-opacity="0.07"/> <stop offset="1" stop-color="currentColor" stop-opacity="0"/> </linearGradient> <linearGradient id="paint5_linear" x1="34985.1" y1="17919.8" x2="44243.5" y2="26884.2" gradientUnits="userSpaceOnUse"> <stop stop-color="currentColor"/> <stop offset="1" stop-color="currentColor" stop-opacity="0"/> </linearGradient> <linearGradient id="paint6_linear" x1="39284.5" y1="25228.3" x2="54408.5" y2="40445.9" gradientUnits="userSpaceOnUse"> <stop stop-color="currentColor"/> <stop offset="1" stop-color="currentColor" stop-opacity="0"/> </linearGradient> </defs> 
</symbol>
</svg>
